public/assets/icons/phone.svg

<svg xmlns="http://www.w3.org/2000/svg" viewBox="-6 -2 24 24" width="24" height="24" preserveAspectRatio="xMinYMin" class="jam jam-phone"><path d='M3 0h6a3 3 0 0 1 3 3v14a3 3 0 0 1-3 3H3a3 3 0 0 1-3-3V3a3 3 0 0 1 3-3zm0 2a1 1 0 0 0-1 1v14a1 1 0 0 0 1 1h6a1 1 0 0 0 1-1V3a1 1 0 0 0-1-1H3zm3 15a1 1 0 1 1 0-2 1 1 0 0 1 0 2z'/></svg>

<svg xmlns="http://www.w3.org/2000/svg" width="12" height="20" viewBox="0 0 12 20">
  <path id="phone" d="M3,0H9a3,3,0,0,1,3,3V17a3,3,0,0,1-3,3H3a3,3,0,0,1-3-3V3A3,3,0,0,1,3,0ZM3,2A1,1,0,0,0,2,3V17a1,1,0,0,0,1,1H9a1,1,0,0,0,1-1V3A1,1,0,0,0,9,2ZM6,17a1,1,0,1,1,1-1A1,1,0,0,1,6,17Z" fill="#f2f2f2"/>
</svg>
